X: 34445
T: Ricky's White Face
R: reel
M: 4/4
K: Cmajor
F2 ED FABA|AFED B,DDE|F2 ED FABA|ABdA FDDE|
F2 ED FABA|AFED B,DDF|E2 EE BEAF|ABde fd d2:|
BA A2 FAEA|FDED B,DDd|BA A2 FAEA|ABdA FD D2|
B2 BA FAEA|FDED B,DFD|E2 EE BEAF|ABde fd d2:|

